!!!COM:	L van Beethoven
!!!OTL:	Scherzo
**kern	**dynam
*I"Violin I	*
*clefG2	*
*k[b-e-]	*
*B-:	*
*M2/2	*
=1	=1
!LO:TX:t=Allegro con brio	!
2.B-	fp
(qqg	.
8f	.
16e	.
16f)	.
=2	=2
4d	.
4b-	.
4f	.
4dd	.
=3	=3
2.b-	fp
(qqgg	.
8ff	.
16ee	.
16ff)	.
=4	=4
4dd	.
4bb-	.
4ff	.
4ddd	.
=5	=5
2.bb-	.
4r	.
=6	=6
1r	.
=7	=7
2r	.
4r	.
(qqccc	p
8bb-	.
16aa	.
16bb-)	.
=8	=8
4ccc	.
4ff	.
4ccc	.
4ff	.
=9	=9
(2ddd	.
4bb-)	.
4r	.
=10	=10
1r	.
=11	=11
1r	.
=12	=12
1r	.
=13	=13
2r	.
4r	.
(qqddd	pp
8ccc	.
16bb	.
16ccc)	.
=14	=14
4fff	.
4r	.
2r	.
=15	=15
2r	.
4r	.
(qqddd	.
8ccc	.
16bb	.
16ccc)	.
=16	=16
4fff	.
4r	.
2r	.
=17	=17
1r	.
=18	=18
1r	.
=19	=19
2.B-	fp
(qqg	.
8f	.
16e	.
16f)	.
=20	=20
4d	.
4b-	.
4f	.
4dd	.
=21	=21
2.b-	fp
(qqgg	.
8ff	.
16ee	.
16ff)	.
=22	=22
4dd	.
4bb-	.
4ff	.
4ddd	.
=23	=23
2bb-	.
2r	.
=24	=24
1r	.
=25	=25
2r	.
4r	.
(qqccc	.
8bb-	.
16aa	.
16bb-)	.
=26	=26
4ccc	.
4ff	.
4ccc	.
4ff	.
=27	=27
(2ddd	.
4bb-)	.
4r	.
=28	=28
1r	.
=29	=29
1r	.
=30	=30
2r	.
!LO:TX:t=cresc.	!
[2bb-	<
=31	=31
2bb-	.
(4.aa	.
8gg)	.
=32	=32
(8ffL	.
8ee	.
8dd	.
8cc	.
8bL	.
8ff	.
8dd	.
8b)	.
=33	=33
4cc	[
2cc	sf
(8dd	.
8cc)	.
=34	=34
8bL	.
8cc	.
8dd	.
8ee	.
8ffL	.
8gg	.
8aa	.
8bb	.
=35	=35
8cccL	.
8ddd	.
8eee	.
8fff	.
4ggg	.
4ggg	.
=36	=36
4ggg	.
4ggg	.
4ggg	.
4ggg	.
=37	=37
4eee	f
2cc	sf
8dd	.
8cc	.
=38	=38
8bL	.
8cc	.
8dd	.
8ee	.
8ffL	.
8gg	.
8aa	.
8bb	.
=39	=39
8cccL	.
8ddd	.
8eee	.
8fff	.
4ggg	.
4ggg	.
=40	=40
4ggg	.
4ggg	.
4ggg	.
4ggg	.
=41	=41
(8eeeL	.
8ccc)	.
8ggg	.
8ggg	.
(8eeeL	.
8ccc)	.
8ggg	.
8ggg	.
=42	=42
(8eeeL	.
8ccc)	.
8ggg	.
8ggg	.
(8eeeL	.
8ccc)	.
8ggg	.
8ggg	.
=43	=43
4eee	.
4r	.
4cc	f
4r	.
=44	=44
4c	.
4r	.
4r	.
(4c	p
=45	=45
4a)	.
4r	.
4.a	.
8a	.
=46	=46
[2a	.
4.a	.
8a	.
=47	=47
qqcc	.
4.b-	.
8a	.
qqcc	.
4.b-	.
8a	.
=48	=48
[2g	<
4.g	[
(8c	.
=49	=49
4cc)	.
4r	.
4.cc	.
8cc	.
=50	=50
[2cc	.
4.cc	.
8cc	.
=51	=51
4.ee	.
8ff	.
4.ee	.
8ff	.
=52	=52
1cc	<
=53	=53
4cc	[
4r	.
4.cc	.
8cc	.
=54	=54
[2ff	sf
4.ff	.
8dd-	[
=55	=55
4cc	p
4r	.
4b-	.
4r	.
=56	=56
1ee-	pp
=57	=57
!LO:TX:t=cresc.	!
4a-	.
4r	.
4.a-	.
8a-	.
=58	=58
[2dd-	sf
4.dd-	.
8b-	[
=59	=59
4a-	p
4r	.
4g	.
4r	.
=60	=60
!LO:TX:t=decresc.	!
[2cc	.
4.cc	.
8b-	.
=61	=61
4a-	.
4r	.
4g	.
4r	.
=62	=62
[2cc	pp
4.cc	.
8b-	.
=63	=63
!LO:TX:t=cresc.	!
4a	.
4aa	.
4r	.
4gg	.
=64	=64
2.ccc	sf
4cc	.
=65	=65
2.bb-	sf
4b-	.
=66	=66
2.aa	sf
4a	.
=67	=67
4gg	.
4g	.
4ee	.
4e	.
=68	=68
[2ccc	p
8cccL	.
8cc	.
8cc	.
8cc	.
=69	=69
[2bb-	.
8bb-L	.
8b-	.
8b-	.
8b-	.
=70	=70
!LO:TX:t=cresc.	!
[2aa	.
8aaL	.
8a	.
8a	.
8a	.
=71	=71
8ggL	.
8g	.
8g	.
8g	.
8ffL	.
8f	.
8f	.
8f	.
=72	=72
8ee-L	.
8e-	.
8e-	.
8e-	.
8ddL	.
8d	.
8d	.
8d	.
=73	=73
8ccL	.
8c	.
8c	.
8c	.
8bL	.
8B	.
8B	.
8B	.
=74	=74
8B-L	p
8e	.
8g	.
8b-	.
8eeL	.
8gg	.
8bb-	.
8bb-	.
=75	=75
8AL	.
8d	.
8f	.
8a	.
8ddL	.
8ff	.
8aa	.
8aa	.
=76	=76
8ggL	.
8ff#	.
8gg	.
8aa	.
!LO:TX:t=cresc.	!
8bb-L	.
8bb	.
8ccc	.
8ccc#	.
=77	=77
1ddd	.
=78	=78
[2ccc	f
8cccL	.
(8fff	.
8ccc	.
8aa)	.
=79	=79
1ggT	sf
=80	=80
8ffL	.
(8cc	p
8b	.
8cc)	.
8aL	.
8cc	.
8a	.
8cc	.
=81	=81
8b-L	.
8cc	.
8b-	.
8cc	.
8b-L	.
8cc	.
8b-	.
8cc	.
=82	=82
4a	.
4r	.
4r	.
(qqgg	.
8ff	.
16ee	.
16ff)	.
=83	=83
4gg	.
4cc	.
4gg	.
4cc	.
=84	=84
(2aa	sf
4ff)	.
(8a	.
8f)	.
=85	=85
!LO:TX:t=cresc.	!
8eL	<
8f	.
8g	.
8a	.
8b-L	.
8cc	.
8dd	.
8ee	.
=86	=86
8ffL	.
8gg	.
8aa	.
8bb-	.
4ccc	.
4ccc	.
=87	=87
4ccc	.
4ccc	.
4ccc	.
4ccc	.
=88	=88
8cccL	f
8ccc	.
8ddd	.
8eee	.
8fffL	.
8ccc	.
8ddd	.
8eee	.
=89	=89
8fffL	.
8ccc	.
8ddd	.
8eee	.
8fffL	.
8ccc	.
8ddd	.
8eee	.
=90	=90
4fff	.
4r	.
4g 4b- 4ee	ff
4r	.
=91	=91
4f 4a 4ff	.
4r	.
2r	.
=92:|!	=92:|!
4f 4a 4ff	.
4r	.
4r	.
(qqd	f
8c	.
16B	.
16c)	.
=93!|:	=93!|:
4A	.
4f	.
4c	.
4a	.
=94	=94
2.f	sf
(qqdd	.
8cc	.
16b	.
16cc)	.
=95	=95
4a	.
4ff	.
4cc	.
4aa	.
=96	=96
2.ff	sf
4r	.
=97	=97
1r	.
=98	=98
4r	.
(qqddd	p
8ccc	.
16bb	.
16ccc)	.
4aa	.
4r	.
=99	=99
1r	.
=100	=100
4r	.
(qqr	pp
qqddd	.
8ccc	.
16bb	.
16ccc)	.
4aa	.
4r	.
=101	=101
!LO:TX:t=cresc.	!
(1cc	<
=102	=102
1cc#)	.
=103	=103
2.d 2.dd	fp
(qqee-	.
8dd	.
16cc#	.
16dd)	.
=104	=104
4a	.
4ff#	.
4dd	.
4aa	.
=105	=105
!LO:TX:t=cresc.	!
4ff#	<
4ddd	.
4ff#	.
4ddd	.
=106	=106
4ff#	.
4ddd	.
4ff#	.
4ddd	.
=107	=107
2.ff# 2.eee-	fp
(qqdd	.
8cc	.
16b)	.
16cc	.
=108	=108
4a	.
4ff#	.
4cc	.
4aa	.
=109	=109
!LO:TX:t=cresc.	!
4ff#	<
4eee-	.
4ff#	.
4eee-	.
=110	=110
4ff#	.
4eee-	.
4ff#	.
4eee-	.
=111	=111
4ddd	f
4r	.
8ddL	.
8ddd	.
8dd	.
8ddd	.
=112	=112
4ccc	sf
4r	.
8ddL	.
8ccc	.
8dd	.
8ccc	.
=113	=113
1r	.
=114	=114
1r	.
=115	=115
1r	.
=116	=116
1r	.
=117	=117
1r	.
=118	=118
2r	.
4r	.
(8cc	p
8b-)	.
=119	=119
8aL	.
8b-	.
8cc	.
8dd	.
8eeL	.
8ff#	.
8gg	.
8aa	.
=120	=120
(qqccc	.
8bb-L	.
8aa	.
8bb-	.
8ccc)	.
4ddd	.
4ccc	f
=121	=121
4ccc	.
4ccc	.
4ccc	.
4ccc	.
=122	=122
(2aa	.
4ff)	.
4r	.
=123	=123
1r	.
=124	=124
2r	.
4r	.
(8b-	p
8a-)	.
=125	=125
8gL	.
8a-	.
8b-	.
8cc	.
8ddL	.
8ee	.
8ff	.
8gg	.
=126	=126
(qqbb-	.
8aa-L	.
8gg	.
8aa-	.
8bb-)	.
4ccc	.
4bb-	f
=127	=127
4bb-	.
4bb-	.
4bb-	.
4bb-	.
=128	=128
(2gg	.
4ee-)	.
4r	.
=129	=129
1r	.
=130	=130
2r	.
4r	.
(8a-	p
8g-)	.
=131	=131
8fL	.
8g-	.
8a-	.
8b-	.
8ccL	.
8dd	.
8ee-	.
8ff	.
=132	=132
(qqaa-	.
8gg-L	.
8ff	.
8gg-	.
8aa-)	.
4bb-	.
!LO:TX:t=cresc.	!
(8e-	<
8d-)	.
=133	=133
8cL	.
8d-	.
8e-	.
8f	.
8g-L	.
8a-	.
8b-	.
8cc	.
=134	=134
8dd-L	.
8ee-	.
8ff	.
8gg-	.
4aa-	[
(8d-	f
8c)	.
=135	=135
8B-L	.
8c	.
8d-	.
8e-	.
8fL	.
8g-	.
8a-	.
8b-	.
=136	=136
8ccL	.
8dd-	.
8ee-	.
8ff	.
4gg-	.
(8c	ff
8B-)	.
=137	=137
8AL	.
8B-	.
8c	.
8d-	.
8e-L	.
8f	.
8g	.
8a	.
=138	=138
8b-L	.
8cc	.
8dd-	.
8ee-	.
8ffL	sf
8ee-	.
8dd-	.
8cc	.
=139	=139
8b-L	.
8a-	.
8g-	.
8f	.
4e	.
4e	.
=140	=140
2.f	fp
(qqg	.
8f	.
16e	.
16f)	.
=141	=141
4g	.
4c	.
4g	.
4c	.
=142	=142
2.a	.
(qqb-	.
8a	.
16g	.
16a)	.
=143	=143
4b-	.
4g	.
4b-	.
4g	.
=144	=144
[1cc	pp
=145	=145
[1cc	.
=146	=146
2cc	.
[2ff	.
=147	=147
[1ff	.
=148	=148
[1ff	<
=149	=149
[2ff	>
(8ffL	]
8gg	.
8ff	.
8gg)	.
=150	=150
[1ff	<
=151	=151
[2ff	>
(8ffL	]
8gg	.
8ff	.
8gg)	.
=152	=152
(8ffL	.
8gg	.
8ff	.
8gg	.
8aaL	.
8bb-	.
8aa	.
8bb-	.
=153	=153
8cccL	.
8ddd	.
8ccc	.
8ddd)	.
4eee-	.
4eee-	.
=154	=154
4eee-	.
4r	.
2r	.
=155	=155
1r	.
=156	=156
(8aL	p
8b-	.
8a	.
8b-	.
8ccL	.
8dd	.
8cc	.
8dd	.
=157	=157
8ee-L	.
8ff	.
8ee-	.
8ff)	.
4gg	.
4gg	.
=158	=158
4gg	.
4r	.
2r	.
=159	=159
1r	.
=160	=160
1r	.
=161	=161
1r	.
=162	=162
(2.gg	.
8ff#	.
8gg	.
=163	=163
4aa	.
4gg	.
4ff	.
4ee-)	.
=164	=164
(2dd	.
2cc)	.
=165	=165
2cc	.
2r	.
=166	=166
(2.gg	.
8ff#	.
8gg	.
=167	=167
8ff#L	.
8gg	.
8ff#	.
8gg	.
8aaL	.
8gg	.
8ff	.
8ee-)	.
=168	=168
!LO:TX:t=cresc.	!
(4dd	.
4cc)	.
2r	.
=169	=169
(4ee-	.
4dd)	.
2r	.
=170	=170
(4ff	.
4ee)	.
2r	.
=171	=171
!LO:TX:t=decresc	!
(4gg	.
4ff)	.
2r	.
=172	=172
2r	.
2ee-	p
=173	=173
1r	.
=174	=174
2r	.
[2cc	pp
=175	=175
1cc	.
=176	=176
2.B-	fp
(qqg	.
8f	.
16e	.
16f)	.
=177	=177
4d	.
4b-	.
4f	.
4dd	.
=178	=178
2.b-	fp
(qqgg	.
8ff	.
16ee	.
16ff)	.
=179	=179
4dd	.
4bb-	.
4ff	.
4ddd	.
=180	=180
2.bb-	.
4r	.
=181	=181
1r	.
=182	=182
2r	.
4r	.
(qqccc	.
8bb-	.
16aa	.
16bb-)	.
=183	=183
4ccc	.
4ff	.
4ccc	.
4ff	.
=184	=184
(2ddd	.
4bb-)	.
4r	.
=185	=185
1r	.
=186	=186
1r	.
=187	=187
1r	.
=188	=188
2r	.
4r	.
(qqddd	pp
8ccc	.
16bb	.
16ccc)	.
=189	=189
4fff	.
4r	.
2r	.
=190	=190
2r	.
4r	.
(qqddd	.
8ccc	.
16bb	.
16ccc)	.
=191	=191
4fff	.
4r	.
2r	.
=192	=192
1r	.
=193	=193
1r	.
=194	=194
1r	.
=195	=195
2r	.
4r	.
(qqddd	f
8bb-	.
16aa	.
16bb-)	.
=196	=196
4ee-	.
(qqccc	sf
8bb-	.
16aa	.
16bb-)	.
4ee-	.
(qqccc	sf
8bb-	.
16aa	.
16bb-)	.
=197	=197
4ee-	.
4r	.
4r	.
(qqccc	sf
8bb-	.
16aa	.
16bb-)	.
=198	=198
4ee-	.
(qqccc	sf
8bb-	.
16aa	.
16bb-)	.
4ee-	.
(qqccc	sf
8bb-	.
16aa	.
16bb-)	.
=199	=199
(2.ee-	p
8dd	.
8ee-)	.
=200	=200
(2.ff	.
8ee-	.
8ff)	.
=201	=201
(2.gg	.
8ff	.
8gg)	.
=202	=202
4aa-	.
4aa-	.
(8aa-L	.
8ff	.
8dd	.
8b-)	.
=203	=203
(2.ee-	f
8dd	.
8ee-)	.
=204	=204
(2.ff	.
8ee-	.
8ff)	.
=205	=205
2.gg-	.
(8gg-	.
8ff)	.
=206	=206
4ee-	.
(8ee-	.
8dd-)	.
4cc	.
(8cc	.
8b-)	.
=207	=207
4a	.
2f	sf
(8g	.
8f)	.
=208	=208
8eL	.
8f	.
8g	.
8a	.
8b-L	.
8cc	.
8dd	.
8ee	.
=209	=209
8ffL	.
8gg	.
8aa	.
8bb-	.
4ccc	.
4ccc	.
=210	=210
4ccc	.
4ccc	.
4ccc	.
4ccc	.
=211	=211
4aa	.
2f	sf
(8g	.
8f)	.
=212	=212
8eL	.
8f	.
8g	.
8a	.
8b-L	.
8cc	.
8dd	.
8ee	.
=213	=213
8ffL	.
8gg	.
8aa	.
8bb-	.
4ccc	.
4ccc	.
=214	=214
4ccc	.
4ccc	.
4ccc	.
4ccc	.
=215	=215
(8aaL	.
8ff)	.
8ccc	.
8ccc	.
(8aaL	.
8ff)	.
8ccc	.
8ccc	.
=216	=216
(8aaL	.
8ff)	.
8ccc	.
8ccc	.
(8aaL	.
8ff)	.
8ccc	.
8ccc	.
=217	=217
4aa	.
4r	.
4ff	f
4r	.
=218	=218
4f	.
4r	.
4r	.
(4f	p
=219	=219
4dd)	.
4r	.
4.dd	.
8dd	.
=220	=220
[2dd	.
4.dd	.
8dd	.
=221	=221
qqff	.
4.ee-	.
8dd	.
qqff	.
4.ee-	.
8dd	.
=222	=222
2.cc	<
4f	>
=223	=223
4ff	]
4r	.
4.ff	.
8ff	.
=224	=224
[2ff	.
4.ff	.
8ff	.
=225	=225
4.aa	.
8bb-	.
4.aa	.
8bb-	.
=226	=226
1ff	<
=227	=227
4ff	[
4r	.
4.ff	.
8ff	.
=228	=228
[2bb-	sf
4.bb-	[
8gg-	.
=229	=229
4ff	p
4r	.
4ee-	.
4r	.
=230	=230
1aa-	pp
=231	=231
!LO:TX:t=cresc.	!
4dd-	<
4r	.
4.dd-	.
8dd-	[
=232	=232
[2gg-	sf
4.gg-	[
8ee-	.
=233	=233
4dd-	p
4r	.
4cc	.
4r	.
=234	=234
!LO:TX:t=decresc	!
[2ff	.
4.ff	.
8ee-	.
=235	=235
4dd-	.
4r	.
4cc	.
4r	.
=236	=236
[2ff	pp
4.ff	.
8ee-	.
=237	=237
!LO:TX:t=cresc.	!
4dd	.
4ddd	.
4r	.
4ccc	.
=238	=238
2.fff	sf
4ff	.
=239	=239
2.eee-	sf
4ee-	.
=240	=240
2.ddd	sf
4dd	.
=241	=241
4ccc	.
4cc	.
4aa	.
4a	.
=242	=242
[2fff	p
8fffL	.
8ff	.
8ff	.
8ff	.
=243	=243
[2eee-	.
8eee-L	.
8ee-	.
8ee-	.
8ee-	.
=244	=244
!LO:TX:t=cresc.	!
[2ddd	<
8dddL	.
8dd	.
8dd	.
8dd	.
=245	=245
8cccL	.
8cc	.
8cc	.
8cc	.
8bb-L	.
8b-	.
8b-	.
8b-	.
=246	=246
8aa-L	.
8a-	.
8a-	.
8a-	.
8ggL	.
8g	.
8g	.
8g	.
=247	=247
8ffL	.
8f	.
8f	.
8f	.
8eeL	.
8e	.
8e	.
8e	.
=248	=248
8e-L	p
8a	.
8cc	.
8ee-	.
8aaL	.
8ccc	.
8eee-	.
8eee-	.
=249	=249
8dL	.
8g	.
8b-	.
8dd	.
8ggL	.
8bb-	.
8ddd	.
8ddd	.
=250	=250
!LO:TX:t=cresc.	!
qqddd	<
8cccL	.
8bb	.
8ccc	.
8ddd	.
8eee-L	.
8eee	.
8fff	.
8fff#	.
=251	=251
1ggg	.
=252	=252
[2fff	f
(8fffL	.
8bbb-	.
8fff	.
8ddd)	.
=253	=253
1cccT	sf
=254	=254
8bb-L	.
(8ff	p
8ee	.
8ff)	.
8ddL	.
8ff	.
8dd	.
8ff	.
=255	=255
8ee-L	.
8ff	.
8ee-	.
8ff	.
8ee-L	.
8ff	.
8ee-	.
8ff	.
=256	=256
4dd	.
4r	.
4r	.
(qqccc	.
8bb-	.
16aa	.
16bb-)	.
=257	=257
4ccc	.
4ff	.
4ccc	.
4ff	.
=258	=258
(2ddd	.
4bb-)	.
(8dd	.
8b-)	.
=259	=259
8aL	.
8b-	.
8cc	.
8dd	.
8ee-L	.
8ff	.
8gg	.
8aa	.
=260	=260
8bb-L	.
8ccc	.
8ddd	.
8eee-	.
4fff	.
4fff	.
=261	=261
4fff	.
4fff	.
4fff	.
4fff	.
=262	=262
8fffL	f
8fff	.
8ggg	.
8aaa	.
8bbb-L	.
8fff	.
8ggg	.
8aaa	.
=263	=263
8bbb-L	.
8fff	.
8ggg	.
8aaa	.
8bbb-L	.
8fff	.
8ggg	.
8aaa	.
=264	=264
4bbb-	.
4r	.
4f 4cc 4aa	ff
4r	.
=265	=265
4f 4dd 4bb-	.
4r	.
4r	.
(qqd	.
8c	.
16B	.
16c)	.
=266:|!	=266:|!
4f 4dd 4bb-	.
4r	.
2r	.
=267	=267
*k[b-e-a-]	*
*E-:	*
*M2/4	*
!LO:TX:a:B:t=Adagio ma non troppo	!
(16ee-LL	p
16gg)	.
16gg	.
16gg	.
(16ggLL	.
16bb-)	.
16bb-	.
16bb-	.
=268	=268
(16bb-LL	.
16aa-)	.
(16aa-	.
16ff)	.
(16ffLL	.
16dd)	.
(16dd	.
16b-)	.
=269	=269
(16b-LL	.
16ee-)	.
16ee-LL	.
(64dd	.
64ee-	.
64ff	.
64ee-)	.
(16b-LL	.
16ff)	.
16ffLL	.
(64ee	.
64ff	.
64gg	.
64ff)	.
=270	=270
16b-LL	.
(64ff#	.
64gg	.
64aa-	.
64gg)	.
16ccLL	.
(32aa-	.
64bb-	.
64ccc)	.
8ffL	.
8r	.
=271	=271
4r	.
[8bb-L	p
(32bb-	.
32gg	.
32ff	.
32ee-)	.
=272	=272
16ee-LL	.
[16dd	.
(32ddLLL	.
32ee-	.
32ff	.
32gg)	.
[8aa-J	.
(32aa-LLL	.
32ff)	.
32bb-	.
32bb-	.
=273	=273
(16.bb-LL	.
32gg)	.
16ee-	.
16r	.
(16.cccLL	.
32aa-)	.
16ff	.
16r	.
=274	=274
16r	.
16ee-	.
16r	.
16dd	.
8ee-L	.
16r	.
16b-	.
=275	=275
(16.ffLL	.
32ee-)	.
(16dd	.
16cc)	.
8.b-L	.
16b-	.
=276	=276
(16b-LL	.
16b-)	.
(16b-	.
16cc)	.
(16.fLL	.
64g	.
64a)	.
48b-LLL	.
48cc	.
48dd	.
48ee-LLL	.
48ff	.
48gg	.
=277	=277
(16.aa-LL	.
32gg)	.
(16ff	.
16ee-)	.
8.ddL	<
(16dd	>
=278	=278
16.ee-LL)	<
32ff)	.
(16.ggLL	.
32aa)	[
(16.cccLL	>
32bb-	.
32aaLLL	]
32aa-	.
32gg	.
32ee-)	.
=279	=279
(16ee-LL	p
16gg)	.
16ggJJ	.
(64gLLLL	.
64b-	.
64ee-	.
64gg)	.
(16ggLL	.
16bb-)	.
16bb-JJ	.
(64b-LLLL	.
64ee-	.
64gg)	.
64bb-	.
=280	=280
(16bb-LL	.
32aa-)	.
64r	.
64aa-JJJJ	.
(16aa-LL	.
32ff)	.
64r	.
64ff	.
(16ffLL	.
32dd)	.
64r	.
64ddJJJJ	.
(16ddLL	.
32b-)	.
64r	.
64b-	.
=281	=281
(16b-LL	.
16ee-)	.
16ee-LL	.
(64dd	.
64ee-	.
64ff	.
64ee-)	.
(16ccLL	.
16aa-)	.
16aa-LL	.
(64gg	.
64aa-	.
64bb-	.
64aa-)	.
=282	=282
16ggLL	.
(64aa	.
64bb-	.
64aa	.
64gg)	.
16ffLL	.
(64aa	.
64bb-	.
64ccc	.
64bb-)	.
8ee-L	.
16r	.
16B-	pp
=283	=283
(8b-L	.
16g-	.
16d	.
8e-L	.
16B-	.
16d	.
=284	=284
16e-LL	.
16f	.
16g-	.
16a	.
16b-LL	.
16cc	.
16dd-	.
16ee)	.
=285	=285
!LO:TX:t=cresc.	!
(8.ffL	.
16ee-	.
16dd-LL	.
16cc	.
16b-	.
16g-)	.
=286	=286
16fLL	pp
16r	.
16f	.
16r	.
8B-L	.
8r	.
=287	=287
(32ee-LLL	pp
32ff	.
32gg-	.
32aa-	.
32bb-LLL	.
32ccc-	.
32bb-	.
32aa-)	.
(32aa-LLL	.
32gg-	.
32ff	.
32ee-	.
32ddLLL	.
32cc-	.
32b-	.
32a-)	.
=288	=288
(32g-LLL	.
32dd	.
32ee-	.
32dd	.
32ee-LLL	.
32gg-	.
32ff	.
32ee-)	.
(32dd-LLL	.
32aa	.
32bb-	.
32aa	.
32bb-LLL	.
32ddd-	.
32ccc	.
32bb-)	.
=289	=289
!LO:TX:t=cresc.	!
(32aaLLL	.
32eee	.
32fff	.
32eee	.
32fffLLL	.
32ggg-	.
32fff	.
32eee-)	.
(32ddd-LLL	.
32ccc	.
32bb-	.
32aa	.
32cccLLL	.
32bb-	.
32aa-	.
32gg-)	.
=290	=290
(32ggLLL	p
32ff	.
32ee-	.
32dd-)	.
(32dd-LLL	.
32cc	.
32ee-	.
32a)	.
8b-L	.
8r	.
=291	=291
8r	.
16r	.
(16aa-	.
16bb-LL)	sf
32aa-)	.
32r	.
(16bb-	sf
32aa-)	.
32r	.
=292	=292
8r	.
16r	.
(16ff	.
16gg-LL)	sf
!LO:TX:t=cresc.	!
32ff)	.
32r	.
(16gg-	.
32eee-)	.
32r	.
=293	=293
(8eee-L	fp
16ccc-	.
!LO:TX:t=decresc.	!
16gg	.
16aa-LL	.
16ff	.
16gg-	.
16ee-)	.
=294	=294
16ff-LL	pp
16r	.
16dd	.
16r	.
8ee-L	.
8r	.
=295	=295
8r	.
16r	.
32aa-	.
32aa-	.
(32ccc-LLL	sf
32bb-)	.
32aa-	.
32aa-	.
(32ccc-LLL	sf
32bb-)	.
32aa-	.
32aa-	.
=296	=296
8r	.
16r	.
32ff	.
32ff	.
(32aa-LLL	sf
32gg-)	.
32ff	.
32ff	.
(32aa-LLL	sf
32gg-)	.
32eee-	.
32eee-	.
=297	=297
(32eee-LLL	fp
32ddd	.
32eee-	.
32fff-	.
32eee-LLL	.
32ddd-	.
32ccc-	.
32bb-)	.
(32ddd-LLL	.
32ccc-	.
32bb-	.
32aa-)	.
(32aa-LLL	.
32gg-	.
32ff	.
32ee-)	.
=298	=298
16ff-LL	pp
16r	.
16dd	.
16r	.
8ee-L	.
8r	.
=299	=299
32r	.
(32ddd	pp
32eee-	.
32fff-	.
32eee-LLL	.
32ddd-	.
32ccc-	.
32bb-)	.
(32ddd-LLL	.
32ccc-	.
32bb-	.
32aa-)	.
(32aa-LLL	.
32gg-	.
32ff	.
32ee-)	.
=300	=300
8ff-L	.
8r	.
16g-LL 16ee-	pp
16r	.
16g- 16ee-	.
16r	.
=301	=301
8fL 8dd	.
8r	.
(16g-LL	.
16ee-)	.
(16ee-LL	.
64dd	.
64ee-	.
64ff)	.
64ee-	.
=302	=302
16ddLL	.
16r	.
8r	.
(16b-LL	.
16gg-)	.
(16gg-LL	.
64ff	.
64gg-	.
64aa-	.
64gg-)	.
=303	=303
16ffLL	.
16bb-	.
16r	.
16aa-	.
16r	.
16gg	.
16r	.
16ff	.
=304	=304
32ee-LLL	.
32r	.
32dd	.
32r	.
32cc	.
32r	.
32b-	.
32r	.
32a-	.
32r	.
32g	.
32r	.
32f	.
32r	.
32e-	.
32r	.
=305	=305
(8dL	<
8e	.
8fL)	>
(16e-	.
16e-)	]
=306	=306
(8dL	<
8e	.
8fL)	>
(16e-	]
16e-)	.
=307	=307
8.dL	p
(64e	.
64f	.
64g	.
64f)	.
8.dL	.
(64g	.
64a-	.
64b-)	.
64a-	.
=308	=308
8.dL	.
(64b	.
64cc	.
64dd	.
64cc)	.
16dLL	.
(64b	.
64cc	.
64dd	.
64cc)	.
16dLL	.
(64b	.
64cc	.
64dd	.
64cc)	.
=309	=309
(48dLLL	.
48e-	.
48e	.
48f	.
48f#	.
48g	.
48a-LLL	.
48a	.
48b-	.
48b	.
48cc	.
48cc#	.
48ddLLL	.
48ee-	.
48ee	.
48ff	.
48ff#	.
48gg	.
48aa-LLL	.
48aa	.
48bb-	.
48bb	.
48ddd	.
48ccc)	.
=310	=310
!LO:TX:t=cresc.	!
(32bb-LLL	.
32aa-	.
32gg	.
32ff	.
32eeLLL	.
32ff	.
32aa-	.
32ff	.
32ee-LLL	.
32dd	.
32cc	.
32b-	.
32aLLL	.
32b-	.
32cc	.
32dd)	.
=311	=311
(16ee-LL	p
16gg)	.
16gg	.
16gg	.
(16ggLL	.
16bb-)	.
16bb-	.
16bb-	.
=312	=312
(16bb-LL	.
16aa-)	.
(16aa-	.
16ff)	.
(16ffLL	.
16dd)	.
(16dd	.
16b-)	.
=313	=313
(16b-LL	.
16ee-)	.
16ee-LL	.
(64dd	.
64ee-	.
64ff	.
64ee-)	.
(16b-LL	.
16ff)	.
16ffLL	.
(64ee	.
64ff	.
64gg	.
64ff)	.
=314	=314
16b-LL	.
(64ff#	.
64gg	.
64aa-	.
64gg)	.
16ccLL	.
(32aa-	.
64bb-	.
64ccc)	.
16ffLL	.
8.r	.
=315	=315
32r	.
32bb-	p
32r	.
32gg	.
32r	.
32ee-	.
32b-	.
32g	.
32e-LLL	.
!LO:TX:t=stacc.	!
32bb-	.
32r	.
32gg	.
32r	.
32ee-	.
48b-LLL	.
48g	.
48e-	.
=316	=316
32dLLL	.
32b-	.
32r	.
32dd	.
32r	.
32ff	.
32bb-	.
32ddd	.
32dLLL	.
32ff	.
32r	.
32bb-	.
32r	.
32ddd	.
32fff	.
32bbb-	.
=317	=317
32r	.
32bbb-	.
32r	.
32ggg	.
32r	.
32eee-	.
32bb-	.
32gg	.
32r	.
32cccc	.
32r	.
32aaa-	.
32r	.
32fff	.
32ccc	.
32aa-	.
=318	=318
32r	.
32gg	.
32r	.
32bb-	.
32r	.
32ff	.
32r	.
32bb-	.
8ee-L	.
16r	.
16b-	.
=319	=319
(16.ffLL	.
32ee-)	.
(16dd	.
16cc)	.
8.b-L	.
16b-	.
=320	=320
(16b-LL	.
16b-)	.
(16b-	.
16cc)	.
(16.fLL	.
64g	.
64a)	.
48b-LLL	.
48cc	.
48dd	.
48ee-LLL	.
48ff	.
48gg	.
=321	=321
(16.aa-LL	.
32gg)	.
(16ff	.
16ee-)	.
8.ddL	<
16dd	>
=322	=322
(16.ee-LL	<
32ff)	.
(16.ggLL	.
32aa)	[
(16.cccLL	>
32bb-	.
32aaLLL	.
32aa-	]
32gg	.
32ff)	.
=323	=323
(16ee-LL	.
16gg)	.
16ggJJ	.
(96GLLLL	.
96B-	.
96e-	.
96g	.
96b-	.
96ee-)	.
(16ggLL	.
16bb-)	.
16bb-JJ	.
(96e-LLLL	.
96g	.
96b-	.
96ee-	.
96gg	.
96bb-)	.
=324	=324
(16bb-LL	.
32aa-)	.
64r	.
64aa-JJJJ	.
(16aa-LL	.
32ff)	.
64r	.
64ff	.
(16ffLL	.
32dd)	.
64r	.
64ddJJJJ	.
(16ddLL	.
32b-)	.
64r	.
64b-	.
=325	=325
(16b-LL	.
16ee-)	.
16ee-LL	.
(64dd	.
64ee-	.
64ff	.
64ee-)	.
(16ccLL	.
16aa-)	.
16aa-LL	.
(64gg	.
64aa-	.
64bb-	.
64aa-)	.
=326	=326
16ggLL	.
(64aa-	.
64bb-	.
64ccc	.
64bb-)	.
16ffLL	.
(64aa-	.
64bb-	.
64ccc	.
64bb-)	.
8ee-L	.
8r	.
=327	=327
2r	.
=328	=328
4r	.
8r	.
16r	.
16b-	.
=329	=329
!LO:TX:t=cresc.	!
(16.aa-LL	.
32gg)	.
(16ff	.
16ee-)	.
(8.ddL	.
16ee-	sf
=330	=330
16ddLL	.
16ee-	sf
16dd	.
16ee-)	sf
8ddL	.
8r	.
=331	=331
8ee-L	p
8r	.
8A-L 8e- 8cc	ff
8r	.
=332	=332
16e-LL	p
16r	.
16f	.
16r	.
16e-	.
16r	.
8r	.
=333	=333
2r	.
=334	=334
4r	.
8r	.
16r	.
16g	pp
=335	=335
(8ggL	.
16ee	.
16b)	sf
!LO:TX:t=cresc.	!
(8ccL	.
16g	.
16b)	sf
=336	=336
(8ccL	.
16g	.
16b)	sf
[4cc	p
=337	=337
!LO:TX:t=cresc.	!
(16ccLL	<
32dd	.
32ee	.
16ff)	.
[16ff	.
(16ffLL	.
32gg	.
32aa	.
32bb-	.
32ddd-	.
16ddd)	[
=338	=338
8eee-L	p
8r	.
8a-L 8ee- 8ccc	ff
8r	.
=339	=339
16e-LL	pp
16r	.
16f	.
16r	.
16e-	.
16r	.
8r	.
=340	=340
4r	.
8r	.
16r	.
(64aa	.
64bb-	.
64ccc	.
64bb-)	.
=341	=341
16ddLL	.
(64aa	.
64bb-	.
64ccc	.
64bb-)	.
16ddLL	.
(64aa	.
64bb-	.
64ccc	.
64bb-)	.
8ee-L	.
8r	.
=342	=342
4r	.
8r	.
(64aa	.
64bb-	.
64aa	.
64bb-	.
64aa	.
64bb-	.
64ccc)	.
64bb-	.
=343	=343
16ddJJ	.
(96aaLLLL	.
96bb-	.
96ccc	.
96bb-	.
96aa	.
96bb-)	.
16ddJJ	.
(96aaLLLL	.
96bb-	.
96ccc	.
96bb-	.
96aa	.
96bb-)	.
8ee-L	.
16r	.
(16gg	pp
=344	=344
8b-L)	.
16r	.
(16ee-	.
8gL)	.
16r	.
(16b-	.
=345	=345
8e-J)	.
!LO:TX:t=pizz.	!
8B-J 8f	p
8GL 8e-	.
8r	.
=346!|:	=346!|:
*k[b-e-]	*
*B-:	*
*M3/4	*
!LO:TX:a:B:t=Allegro	!
!LO:TX:t=arco	!
4ff	p
[8ee-L	sf
=347	=347
8ee-L	.
8dd	.
8dd	.
8ccL	.
8b-	.
[8cc	sf
=348	=348
8ccL	.
8b-	.
8b-	.
8aL	.
8b-	.
[8cc	sf
=349	=349
8ccL	.
8dd	.
8dd	.
8cc	.
8dd	.
8ee-	.
=350	=350
4cc	.
8r	.
4gg	.
[8ff	sf
=351	=351
8ffL	.
8ee-	.
8ee-	.
4ee-	.
[8dd	sf
=352	=352
8ddL	.
8cc	.
8ccL	.
4ee-	p
[8cc	.
=353	=353
8ccL	.
4a	.
4f	.
[8b-	.
=354	=354
8b-L	.
8B-	.
8B-	.
=:|!|:	=:|!|:
4dd	f
[8cc#L	.
=355	=355
8cc#L	.
8dd	.
8dd	.
4aa	p
[8bb	.
=356	=356
8bbL	.
8ccc	.
8ccc	.
4cc	f
[8b	.
=357	=357
8bL	.
8cc	.
8cc	.
4gg	p
8aa	.
=358	=358
8aaL	.
8bb-	.
8bb-	.
!LO:TX:t=cresc.	!
8ff#	<
8ff#	.
8gg	.
=359	=359
8ggL	.
8dd	.
8dd	.
8ee-	.
8ee-	.
8b	.
=360	=360
8ccL	.
8gg	.
8ee-	.
8dd	.
8cc	.
8b-	[
=361	=361
4a	p
8r	.
4ff	.
8ee-	.
=362	=362
4dd	.
8r	.
4bb-	.
8bb-	.
=363	=363
4aa	.
8r	.
4fff	sf
8eee-	.
=364	=364
4ddd-	.
8r	.
4eee	sf
8eee	.
=365	=365
8fffL	f
4fff	.
4aa	.
[8ccc	.
=366	=366
8cccL	.
4ff	.
4aa	.
[8cc	.
=367	=367
8ccL	.
4ff	.
4a	.
[8cc	.
=368	=368
8ccJ	.
(8fL	.
8ff)	.
(8ff	.
8fff)	.
8fff	.
=369	=369
[2.fffT	p
=370	=370
[2.fff	.
=371	=371
[2.fff	.
=372	=372
4.fff	.
4ggg	.
[8fff	sf
=373	=373
8fffL	.
8eee-	.
8eee-	.
4eee-	.
[8ddd	sf
=374	=374
8dddL	.
8ccc	.
8ccc	.
4eee-	.
[8ccc	sf
=375	=375
8cccL	.
4aa	.
4ff	.
[8bb-	.
=376	=376
4bb-	.
8r	.
4aa-	.
[8ff#	sf
=377	=377
8ff#L	.
8gg	.
8gg	.
4gg	.
[8ee	.
=378	=378
!LO:TX:t=cresc.	!
8eeL	<
8ff	.
8ff	.
4ddd	.
[8bb-	f
=379	=379
8bb-L	.
4aa	.
8ff	.
8ee-	.
8cc	.
=380	=380
8b-L	.
8bb-	.
2bb-	sf
=381	=381
8b-L	.
8bb-	.
[2bb-	sf
=382	=382
4.bb-	.
4gg	.
[8cc# [8ee	sf
=383	=383
8cc#L 8ee	.
8dd 8ff	.
8dd 8ff	.
[4.b- [4.bb-	sf
=384	=384
4.b- 4.bb-	.
4gg	.
8cc# 8ee	.
=385	=385
8cc#L 8ee	p
8dd 8ff	.
8dd 8ff	.
8cc# 8ee	.
8cc# 8ee	.
8dd 8ff	.
=386	=386
!LO:TX:t=cresc.	!
8ddL 8ff	<
8cc# 8ee	.
8cc# 8ee	.
8dd 8ff	.
8dd 8ff	.
8cc# 8ee	.
=387	=387
8cc#L 8ee	.
8dd 8ff	.
8dd 8ff	.
8gg	.
8gg	.
8aa	.
=388	=388
8aaL	.
8bb-	.
8bb-	.
8ccc	.
8ccc	.
8ddd	.
=389	=389
8dddL	.
8eee-	.
8eee-	.
8fff	.
8fff	.
8ggg	.
=390	=390
8gggL	ff
8aaa	.
8aaa	.
8bbb-	.
8bbb-	.
8bbb-	.
=391	=391
8bbb-L	.
8fff	.
8fff	.
8ddd	.
8ddd	.
8bb-	.
=392	=392
8bb-L	p
8aa	.
8aa	.
8ff	.
8ee-	.
8cc	.
=393	=393
8b-L	.
8bb-	.
8bb-	.
8b-	.
8b-	.
8B-	.
=394	=394
4B-	.
8r	.
=395:|!	=395:|!
4B-	.
4r	.
8r	.
=!|:	=!|:
!LO:TX:t=TRIO	!
(16ccc#LL	p
16ddd)	.
=396	=396
8bb-L	.
(16ee	.
16ff)	.
8ddL	.
(16a	.
16b-)	.
8fL	.
(16c#	.
16d)	.
=397	=397
8B-L	fp
(16e	.
16f)	.
8b-L	.
(16e	.
16f)	.
8ccL	.
(16e	.
16f)	.
=398	=398
8ddL	.
(16e	.
16f)	.
8ee-L	.
(16e	.
16f)	.
8ddL	.
(16e	.
16f)	.
=399	=399
8ccL	.
(16e	.
16f)	.
8ffL	.
(16e	.
16f)	.
8ffL	.
(16ccc#	.
16ddd)	.
=400	=400
8bb-L	.
(16ee	.
16ff)	.
8ddL	.
(16a	.
16b-)	.
8fL	.
(16c#	.
16d)	.
=401	=401
8B-L	fp
(16a	.
16b-)	.
8ddL	.
(16a	.
16b-)	.
8ee-L	.
(16a	.
16b-)	.
=402	=402
8ffL	.
(16a	.
16b-)	.
8ggL	.
(16ee-	.
16cc)	.
8aL	.
(16f	.
16a)	.
=403	=403
8b-L	.
(16f	.
16d)	.
4B-	.
8r	.
=:|!|:	=:|!|:
(16eeLL	.
16ff)	.
=404	=404
8gL	.
(16ee	.
16ff)	.
8dddL	.
(16ee	.
16ff)	.
8gL	.
(16ee	.
16ff)	.
=405	=405
8gL	.
(16dd	.
16ee-)	.
8gL	.
(16dd	.
16ee-)	.
8g-L	.
(16dd	.
16ee-)	.
=406	=406
8fL	.
(16dd	.
16ee-)	.
8cccL	.
(16dd	.
16ee-)	.
8fL	.
(16dd	.
16ee-)	.
=407	=407
8fL	.
(16cc#	.
16dd)	.
8fL	.
(16ee	.
16ff)	.
8fL	.
(16ccc#	.
16ddd)	.
=408	=408
8bb-L	.
(16ee	.
16ff)	.
8ddL	.
(16a	.
16b-)	.
8fL	.
(16c#	.
16d)	.
=409	=409
8B-L	fp
(16a	.
16b-)	.
8ddL	.
(16a	.
16b-)	.
8ee-L	.
(16a	.
16b-)	.
=410	=410
8ffL	.
(16a	.
16b-)	.
8ggL	.
(16ee-	.
16cc)	.
8aL	.
(16f	.
16a)	.
=411	=411
8b-L	.
(16f	.
16d)	.
4B-	.
8r	.
=412:|!	=412:|!
8b-L	.
16f	.
16d	.
8B-L	.
4dd-	ff
[8cc	.
=413	=413
8ccL	.
8b-	.
8b-	.
4dd-	sf
[8cc	.
=414	=414
8ccL	.
8b-	.
8b-	.
4dd-	sf
[8cc	.
=415	=415
8ccL	.
8b-	.
!LO:TX:t=D.C. Scherzo	!
8b-	.
8dd-	.
8cc	.
8a	.
=416	=416
4b-	.
8r	.
=417	=417
*M2/4	*
!LO:TX:t=pp	!
!LO:TX:t=LA MALINCONIA	!
!LO:TX:t=ADAGIO	!
4dd	.
(8ddL	.
8dd)	.
=418	=418
4dd	.
(8..b-L	.
32cc	.
=419	=419
8..ddL	.
32ee-)	.
(8ffL	.
8ff)	.
=420	=420
(qqee	<
qqff)	.
qqgg	.
2ff	.
=421	=421
2r	[
=422	=422
2r	.
=423	=423
2r	.
=424	=424
2r	.
=425	=425
4dd	pp
!LO:TX:t=cresc.	!
(8ddL	.
8dd)	.
=426	=426
4dd	.
(8..bL	.
32cc	.
=427	=427
8..ddL	.
32ee-)	.
8ffL	.
8ff	.
=428	=428
(qqee	pp
qqff#)	.
qqgg	.
2ff#	.
=429	=429
2c#	f
=430	=430
(qqgg	p
qqaa)	.
qqbb-	.
2aa	.
=431	=431
2f	f
=432	=432
(qqbb	p
qqccc)	.
qqddd	.
2ccc	.
=433	=433
4f#	pp
(8f#L	.
8f#)	.
=434	=434
4f#	.
(8..d#L	.
32e	.
=435	=435
8..f#L	.
32g#)	.
(8aL	.
8a)	.
=436	=436
(qqg#	.
qqa)	.
qqb	.
2a	.
=437	=437
2r	.
=438	=438
4r	.
8r	.
8cc#	pp
=439	=439
(4ff#	.
4b#	.
=440	=440
4cc#	.
4f##)	.
=441	=441
4r	.
8r	.
8b-	.
=442	=442
!LO:TX:t=cresc.	!
(4gg-	<
4ff	.
=443	=443
4dd-	.
4cc	.
=444	=444
4a-	.
[4g)	sf
=445	=445
4g	[
(qqg	p
qqa)	.
qqb-	.
4a	.
=446	=446
(qqa	f
qqb-)	.
qqcc	.
4b-	.
(qqa	p
qqb)	.
qqcc	.
4b	.
=447	=447
(qqb	f
qqcc)	.
qqdd	.
4cc	.
qqb	p
qqcc#	.
qqdd	.
4cc#	.
=448	=448
(qqcc#	f
qqdd)	.
qqee	.
4dd	.
(qqcc#	p
qqdd)	.
qqee-	.
8ddL	.
8dd)	.
=449	=449
(4bb-	.
4a 4aa	sf
=450	=450
4ff	.
4e) 4ee	sf
=451	=451
(4cc	p
!LO:TX:t=decresc	!
[4b-)	.
=452	=452
(4b-	.
4a)	.
=453	=453
4r	.
4a	pp
=454	=454
4r	.
!LO:TX:t=cresc.	!
4cc	<
=455	=455
4r	.
4ee-	.
=456	=456
4r	.
4ccc	.
=457	=457
4r	.
4eee-	.
=458	=458
4r	[
4ggg-	ff
=459	=459
!LO:TX:t=attacca subito il Allegretto	!
(4f	p
!LO:TX:t=decresc	!
8g-L	.
8e-)	.
=460	=460
4f	pp
16fLL	.
==461	==461
*M3/8	*
!LO:TX:a:B:t=Allegretto quasi Allegro	!
(16fLL	p
16dd)	.
16cc	.
=462	=462
(16b-LL	.
16a)	.
16b-	sf
16cc	.
16dd	.
16ee-	.
=463	=463
(16ccLL	.
16b)	.
16cc	sf
16f	.
16ee-	.
16dd	.
=464	=464
(16ccLL	p
16b)	.
16cc	.
16dd	.
16ee-	.
16ff	.
=465	=465
(16ddLL	.
16b-)	.
16bb-	.
16b-	.
16bb-	.
16aa-	.
=466	=466
(16aa-LL	.
16gg)	.
16gg	.
16ff#	.
16gg	.
16ff	.
=467	=467
(16ffLL	.
16ee-)	.
16ee-	.
16dd	.
16ee-	.
16dd	.
=468	=468
(16ccLL	.
16gg)	.
16ff	.
16ee-	.
16dd	.
16cc	.
=469	=469
(16b-LL	.
16a)	.
16g	.
16f	.
16dd	.
16cc	.
=470	=470
(16b-LL	.
16a)	.
16b-	sf
16cc	.
16dd	.
16ee-	.
=471	=471
(16ccLL	.
16b)	.
16cc	sf
16f	.
16ee-	.
16dd	.
=472	=472
(16ccLL	p
16b)	.
16cc	.
16dd	.
16ee-	.
16ff	.
=473	=473
(16ddLL	.
16b-)	.
16bb-	.
16b-	.
16bb-	.
16aa-	.
=474	=474
(16aa-LL	.
16gg)	.
16gg	.
16ff#	.
16gg	.
16ff	.
=475	=475
(16ffLL	.
16ee-)	.
16ee-	.
16dd	.
16ee-	.
16dd	.
=476	=476
(16ccLL	.
16gg)	.
16ff	.
16ee-	.
16dd	.
16cc	.
=477	=477
4b-	.
8r	.
=478	=478
4.r	.
=479	=479
8r	.
16r	.
(16g	.
16gg	.
16ff)	.
=480	=480
(16ffLL	.
16ee)	.
16dd	.
16cc	.
16dd	.
16g	.
=481	=481
(8b-L	.
8a)	.
8r	.
=482	=482
4.r	.
=483	=483
8r	.
16r	.
(16dd	.
16ddd	.
16ccc)	.
=484	=484
(16cccLL	.
16bb)	.
16aa	.
16gg	.
16aa	.
16ff	.
=485	=485
16eeLL	.
(16gg	.
16ff#)	.
(16gg	.
16ff)	.
(16gg	.
=486	=486
16eeLL)	.
(16gg	.
16ff#)	.
(16gg	.
16ff)	.
(16gg	.
=487	=487
16eeLL)	.
(16gg	.
16ee	.
16cc	.
16g	.
16f)	.
=488	=488
16eLL	.
(16g	.
16f#)	.
(16g	.
16f)	.
(16g	.
=489	=489
16eLL)	.
(16g	.
16f#)	.
(16g	.
16f)	.
(16g	.
=490	=490
16eLL)	.
(16g	.
16f#)	.
(16g	.
16f)	.
(16g	.
=491	=491
16eLL)	.
(16d	.
16c	.
16d	.
16e	.
16f	.
=492	=492
!LO:TX:t=decresc	!
16gLL	.
16f	.
16e	.
16f	.
16g	.
16a	.
=493	=493
16b-LL	.
16a	.
16g	.
16a	.
16b-	.
16cc)	.
=494	=494
(16ddLL	p
16cc#	<
16ee	.
16dd	>
16cc	.
16b-)	.
=495	=495
4a	]
8r	.
=496	=496
(16ddLL	.
16cc#	.
16ee	.
16dd	.
16cc	.
16b-)	.
=497	=497
4a	.
8r	.
=498	=498
(16ddLL	.
16cc#	.
16ee#	.
16dd	.
16cc	.
16b-)	.
=499	=499
(16aLL	.
16ff)	.
16cc	.
16a	.
16g	.
16dd	.
=500	=500
(16fLL	.
16cc)	.
16a	.
16f	.
16c	.
16e	.
=501	=501
8fL	.
8r	.
8r	.
=502	=502
[4.ccc	p
=503	=503
(16cccLL	<
16bb	.
16ccc	[
16bb	>
16ccc	.
16bb)	]
=504	=504
[4.ccc	.
=505	=505
(16cccLL	.
16bb	.
16ccc	.
16bb	.
16ccc	.
16bb)	.
=506	=506
[4.ccc	.
=507	=507
4ccc	.
8r	.
=508	=508
4.r	.
=509	=509
4.r	.
=510	=510
(16bb-LL	p
16ccc	.
16ddd-	.
16eee-	.
16fff	.
16ggg)	.
=511	=511
(4aaa-	.
8fff)	.
=512	=512
(4eee	.
8ggg)	.
=513	=513
4.r	.
=514	=514
4.r	.
=515	=515
4.r	.
=516	=516
(16ddLL	f
16ee	.
16ff	.
16gg	.
16aa	.
16bb)	.
=517	=517
4.ccc	p
=518	=518
(16dddLL	sf
16ccc#	.
16ddd	.
16eee	.
16fff)	.
16ggg	.
=519	=519
(4aaa	p
8fff)	.
=520	=520
(4eee	.
8ggg)	.
=521	=521
8fffL	.
16r	.
(16c	.
16a)	.
16g	.
=522	=522
(16fLL	.
16e)	.
16f	.
16g	.
16a	.
16b-	.
=523	=523
(16gLL	.
16f#)	.
16g	.
16c	.
16b-	.
16a	.
=524	=524
(16gLL	.
16f#)	.
16g	.
16a	.
16b-	.
16cc	.
=525	=525
!LO:TX:t=cresc.	!
(16aLL	<
16g#)	.
16a	.
16f	.
16cc	.
16b-	.
=526	=526
(16aLL	.
16g#)	.
16a	.
16b-	.
16cc	.
16dd	.
=527	=527
(16b-LL	.
16a)	.
16b-	.
16f	.
16dd	.
16cc	.
=528	=528
(16b-LL	.
16a)	.
16b-	.
16cc	.
16dd	.
16ee-	[
=529	=529
(16ccLL	f
16f)	.
16ee-	.
16dd	.
16cc	.
16f	.
=530	=530
16ee-LL	.
16dd	.
16cc	.
16f	.
16ee-	.
16dd	.
=531	=531
16ccLL	.
16f	.
16ee-	.
16dd	.
16cc	.
16f	.
=532	=532
16ee-LL	pp
16dd	.
16cc	.
16f	.
16dd	.
16cc	.
=533	=533
(16b-LL	.
16a)	.
16b-	sf
16cc	.
16dd	.
16ee-	.
=534	=534
(16ccLL	.
16b)	.
16cc	sf
16f	.
16ee-	.
16dd	.
=535	=535
(16ccLL	p
16b)	.
16cc	.
16dd	.
16ee-	.
16ff	.
=536	=536
(16ddLL	.
16b-)	.
16bb-	.
16b-	.
16bb-	.
16aa-	.
=537	=537
(16aa-LL	.
16gg)	.
16gg	.
16ff#	.
16gg	.
16ff	.
=538	=538
(16ffLL	.
16ee-)	.
16ee-	.
16dd	.
16ee-	.
16dd	.
=539	=539
(16ccLL	.
16gg)	.
16ff	.
16ee-	.
16dd	.
16cc	.
=540	=540
(16b-LL	.
16a)	.
16g	.
16f	.
16dd	.
16cc	.
=541	=541
(16b-LL	.
16a)	.
16b-	sf
16cc	.
16dd	.
16ee-	.
=542	=542
(16ccLL	.
16b)	.
16cc	sf
16f	.
16ee-	.
16dd	.
=543	=543
(16ccLL	p
16b)	.
16cc	.
16dd	.
16ee-	.
16ff	.
=544	=544
(16ddLL	.
16b-)	.
16bb-	.
16b-	.
16bb-	.
16aa-	.
=545	=545
(16aa-LL	.
16gg)	.
16gg	.
16ff#	.
16gg	.
16ff	.
=546	=546
(16ffLL	.
16ee-)	.
16ee-	.
16dd	.
16ee-	.
16dd	.
=547	=547
(16ccLL	.
16gg)	.
16ff	.
16ee-	.
16dd	.
16cc	.
=548	=548
8b-L	.
8r	.
8r	.
=549	=549
4.r	.
=550	=550
8r	.
16r	.
(16g	.
16gg	.
16ff)	.
=551	=551
(16ffLL	.
16ee)	.
16dd-	.
16cc	.
16dd-	.
16g	.
=552	=552
(8b-L	.
8a)	.
8r	.
=553	=553
4.r	.
=554	=554
8r	.
16r	.
(16ff	.
16fff	.
16eee-)	.
=555	=555
(16eee-LL	.
16ddd)	.
16ccc	.
16bb-	.
16ccc	.
16aa-	.
=556	=556
16ggLL	.
(16bb-	.
16aa)	.
(16bb-	.
16aa-)	.
(16bb-	.
=557	=557
16ggLL)	.
(16bb-	.
16aa)	.
(16bb-	.
16aa-)	.
(16bb-	.
=558	=558
16ggLL)	.
(16bb-	.
16gg	.
16ee-	.
16b-	.
16a-)	.
=559	=559
16gLL	.
(16b-	.
16a)	.
(16b-	.
16a-)	.
(16b-	.
=560	=560
16gLL)	.
(16B-	.
16A)	.
(16B-	.
16A-)	.
(16B-	.
=561	=561
!LO:TX:t=cresc.	!
16GLL)	<
(16B-	.
16A)	.
(16B-	.
16A-)	.
(16B-	.
=562	=562
16GLL)	.
(16g	.
16f#)	.
(16g	.
16f)	.
(16g	[
=563	=563
16e-LL)	f
(16gg	.
16ee-	.
16dd	.
16cc	.
16b-)	.
=564	=564
(16aLL	p
16g	.
16f	.
16g	.
16a	.
16b-	.
=565	=565
16ccLL	.
16b-	.
16a	.
16b-	.
16cc	.
16dd	.
=566	=566
16ee-LL	.
16dd	.
16cc	.
16dd	.
16ee-	.
16ff	.
=567	=567
16ggLL	<
16ff#	.
16aa	[
16gg	>
16ff	.
16ee-)	]
=568	=568
4dd	.
8r	.
=569	=569
(16ggLL	.
16ff#	.
16aa	.
16gg	.
16ff	.
16ee-)	.
=570	=570
4dd	.
8r	.
=571	=571
(16ggLL	.
16ff#	.
16aa	.
16gg	.
16ff	.
16ee-)	.
=572	=572
(16ddLL	.
16bb-)	.
16ff	.
16dd	.
16cc	.
16gg	.
=573	=573
(16b-LL	.
16ff)	.
16dd	.
16b-	.
16f	.
16a	.
=574	=574
8b-L	.
8r	.
8r	.
=575	=575
[4.fff	p
=576	=576
(16fffLL	<
16eee	.
16fff	[
16eee	>
16fff)	.
16eee	]
=577	=577
[4.fff	.
=578	=578
(16fffLL	.
16eee	.
16fff	.
16eee	.
16fff	.
16eee)	.
=579	=579
[4.fff	.
=580	=580
8fffL	.
8r	.
8r	.
=581	=581
4.r	.
=582	=582
4.r	.
=583	=583
(16ee-LL	p
16ff	.
16gg-	.
16aa-	.
16bb-	.
16ccc)	.
=584	=584
(4ddd-	.
8bb-)	.
=585	=585
(4aa	.
8ccc)	.
=586	=586
4.r	.
=587	=587
4.r	.
=588	=588
4.r	.
=589	=589
(16ee-LL	p
16ff	.
16gg-	.
16aa-	.
16bb-	.
16ccc)	.
=590	=590
4.ddd-	.
=591	=591
(16dd-LL	.
16ee-	.
16ff	.
16gg-	.
16aa-	.
16bb-)	.
=592	=592
4.ccc-	.
=593	=593
(16ccLL	.
16dd-	.
16ee-	.
16ff	.
16gg	.
16aa)	.
=594	=594
!LO:TX:t=cresc.	!
[4.bb-	.
=595	=595
(16bb-LL	.
16ccc	.
16ddd-	.
16ddd	.
16eee-	.
16eee)	.
=596	=596
4.fff	.
=597	=597
4.aa	.
=598	=598
8bb-L	.
16r	.
(16f	p
16dd	.
16cc)	.
=599	=599
(16b-LL	.
16a)	.
16b-	.
16cc	.
16dd	.
16ee-	.
=600	=600
(16ccLL	.
16b)	.
16cc	.
16f	.
16ee-	.
16dd	.
=601	=601
(16ccLL	.
16b)	.
16cc	.
16dd	.
16ee-	.
16ff	.
=602	=602
!LO:TX:t=cresc.	!
(16ddLL	<
16cc#)	.
16dd	.
16b-	.
16ff	.
16ee-	.
=603	=603
(16ddLL	.
16cc#)	.
16dd	.
16ee-	.
16ff	.
16gg	.
=604	=604
(16ee-LL	.
16dd)	.
16ee-	.
16b-	.
16gg	.
16ff	.
=605	=605
(16ee-LL	.
16dd)	.
16ee-	.
16ff	.
16gg	.
16aa-	.
=606	=606
(16ffLL	.
16ee)	.
16ff	.
16b-	.
16aa-	.
16gg	.
=607	=607
(16ffLL	.
16ee)	.
16ff	.
16gg	.
16aa	.
16bb-	.
=608	=608
(16ggLL	.
16ff#)	.
16gg	.
16aa-	.
16bb-	.
16gg	[
=609	=609
(16aaLL	.
16gg)	.
16aa	.
16bb-	.
16ccc	.
16aa	.
=610	=610
(16bb-LL	ff
16aa)	.
16bb-	.
16ccc	.
[8ddd-	f
=611	=611
4.ddd-	.
=612||	=612||
*M2/4	*
!LO:TX:t=Tempo I.	!
4dd	pp
(8ddL	.
8dd)	.
=613	=613
4dd	.
(8..b-L	.
32cc	.
=614	=614
8..ddL	.
32ee-)	.
(8ffL	.
8ff)	.
=615	=615
(qqee	.
qqff)	.
qqgg	.
2ff	.
=616	=616
2r	.
=617	=617
4r	.
(8..ffL	pp
32ee-	.
=618	=618
8..ddL	.
32cc)	.
(8bL	.
8b)	.
=619	=619
(qqa#	pp
qqb)	.
qqcc	.
2b	.
=620	=620
2d	f
=621	=621
(qqa#	pp
qqb)	.
qqcc	.
[4b	.
16bJJ	.
!LO:TX:a:B:t=Allegretto	!
(16eLL	.
16cc)	.
16b	.
=622||	=622||
*M3/8	*
(16aLL	.
16g#)	.
16a	sf
16b	.
16cc	.
16dd	.
=623	=623
(16bLL	.
16a#)	.
16b	sf
16e	.
16dd	.
16cc	.
=624	=624
(16bLL	p
16a#)	.
16b	.
16cc	.
16dd	.
16ee	.
=625	=625
(16ccLL	.
16b	.
16cc)	.
16r	.
8r	.
=626	=626
4.r	.
=627||	=627||
*M2/4	*
!LO:TX:t=cresc.	!
!LO:TX:t=Adagio	!
4c	.
(8cL	.
8c)	.
=628	=628
(qqB	p
qqc)	.
qqd	.
[4c	.
16cJJ	.
!LO:TX:a:B:t=Allegretto	!
(16dLL	.
16b)	.
16a	.
=629||	=629||
*M3/8	*
(16gLL	.
16f#)	.
16g	sf
16a	.
16b	.
16cc	.
=630	=630
(16aLL	.
16g#)	.
16a	sf
16d	.
16cc	.
16b	.
=631	=631
(16aLL	p
16g#)	.
16a	.
16b	.
16cc	.
16dd	.
=632	=632
(16bLL	.
16a#)	.
16b	.
16g	.
16dd	.
16cc	.
=633	=633
(16bLL	.
16a#)	.
16b	.
16cc	.
16dd	.
16ee-	.
=634	=634
!LO:TX:t=decresc	!
16ccLL	.
16g	.
16ee-	.
16dd	.
16cc	.
16g	.
=635	=635
16ee-LL	.
16dd	.
16cc	.
16g	.
16ee-	.
16dd	.
=636	=636
16ccLL	.
16f	.
16ee-	pp
16dd	.
16cc	.
16f	.
=637	=637
16ee-LL	.
16dd	.
16cc	.
16f	.
16dd	.
16cc	.
=638	=638
(16b-LL	.
16a)	.
16b-	sf
16cc	.
16dd	.
16ee-	.
=639	=639
(16ccLL	.
16b)	.
16cc	sf
16f	.
16ee-	.
16dd	.
=640	=640
(16ccLL	.
16b)	.
16cc	.
16dd	.
16ee-	.
16ff	.
=641	=641
(16ddLL	.
16b-)	.
16bb-	.
16b-	.
16bb-	.
16aa-	.
=642	=642
(16aa-LL	.
16gg)	.
16gg	.
16ff#	.
16gg	.
16ff	.
=643	=643
(16ffLL	.
16ee-)	.
16ee-	.
16dd	.
16ee-	.
16dd	.
=644	=644
(16ccLL	.
16gg)	.
16ff	.
16ee-	.
16dd	.
16cc	.
=645	=645
(16b-LL	.
16a)	.
16g	.
16f	.
16dd	.
16cc	.
=646	=646
(16b-LL	.
16a)	.
16b-	.
16cc	.
16dd	.
16ee-	.
=647	=647
(16ccLL	.
16b)	.
16cc	.
16f	.
16ee-	.
16dd	.
=648	=648
(16ccLL	.
16b)	.
16cc	.
16dd	.
16ee-	.
16ff	.
=649	=649
!LO:TX:t=cresc.	!
(16ddLL	.
16b-)	.
16bb-	.
16b-	.
16bb-	.
16aa-	.
=650	=650
(16aa-LL	f
16gg)	.
16gg	.
16ff#	.
16gg	.
16ff	.
=651	=651
(16ffLL	.
16ee-)	.
16ee-	.
16dd	.
16ee-	.
16dd	.
=652	=652
(16ccLL	.
16gg)	.
16ff	.
16ee-	.
16dd	.
16cc	.
=653	=653
8b-L	.
8r	.
8r	.
=654	=654
8r	.
8r	.
(8dd	p
=655	=655
8ee-L)	.
8aa	.
8ccc	.
=656	=656
8eee-L	.
8r	.
(8ee-	.
=657	=657
8ffL)	.
8bb-	.
8ddd	.
=658	=658
8fffL	.
8r	.
8r	.
=659	=659
8r	.
16r	.
(16cc	.
16ccc	.
16bb-)	.
=660	=660
!LO:TX:t=cresc.	!
(16bb-LL	.
16aa)	.
16aa	.
16gg	.
16ff	.
16ee-	.
=661	=661
(16ee-LL	.
16dd)	.
16dd	.
16cc	.
16b-	.
16a-	.
=662	=662
(16gLL	.
16gg)	.
(8b-	.
16dd	.
16cc)	.
=663	=663
8b-L	.
8dd	p
8ff	.
=664	=664
8bb-L	.
8r	.
(8b-	.
=665	=665
8aL)	.
16r	.
(16ee-	.
16eee-	.
16ddd)	.
=666	=666
(16dddLL	.
16ccc)	.
16ccc	.
16bb-	.
16aa	.
16gg	.
=667	=667
8ffL	.
8r	.
8r	.
=668	=668
8r	.
8r	.
(8ee-	.
=669	=669
8ggL)	.
16r	.
(16gg	.
16ggg	.
16fff)	.
=670	=670
(16fffLL	.
16eee-)	.
16eee-	.
16ddd	.
16ccc	.
16bb-	.
=671	=671
(16bb-LL	.
16aa)	.
16aa	.
16gg	.
16ff	.
16ee-	.
=672	=672
(16ee-LL	.
16dd)	.
16dd	.
16cc	.
16b-	.
16a-	.
=673	=673
!LO:TX:t=cresc.	!
4.g	.
=674	=674
4.bb-	.
=675	=675
[4.ff	.
=676	=676
16ffLL	.
16ee	.
16ee-	.
16dd	.
16cc	.
16ff	.
=677	=677
8b-L	.
4d	p
=678	=678
8r	.
4d	.
=679	=679
8r	.
16r	.
(16ff	.
16ccc	.
16bb-)	.
=680	=680
8aaL	.
16r	.
(16ff	.
16eee-	.
16ccc)	.
=681	=681
8bb-L	.
[4ff	.
=682	=682
8ffL	.
[4ff	.
=683	=683
8ffL	.
16r	.
(16ff	.
16ccc	.
16bb-	.
=684	=684
8aaL)	.
16r	.
!LO:TX:t=decresc	!
(16ff	.
16eee-	.
16ccc)	.
=685	=685
8aaL	.
16r	.
(16f	.
16ee-	.
16cc)	.
=686	=686
8aL	.
16r	.
(16f	pp
16ee-	.
16cc)	.
=687	=687
[4.a	.
=688	=688
8.aL	.
!LO:TX:a:B:t=poco Adagio	!
16f	.
16dd	.
16cc	.
=689	=689
16b-LL	.
16a	.
16b-	.
16cc	.
16dd	.
16ee-	.
=690	=690
8.ccJ	.
16fLL	.
16ee-	.
16dd	.
=691	=691
16ccLL	.
16b	.
16cc	.
16dd	.
16ee-	.
16ff	.
=692	=692
8.ddJ	.
!LO:TX:a:B:t=Prestissimo	!
16fLL	p
16dd	.
16cc	.
=693	=693
16b-LL	.
16a	.
16b-	.
16cc	.
16dd	.
16ee-	.
=694	=694
16ccLL	.
16b	.
16cc	.
16f	.
16ee-	.
16dd	.
=695	=695
16ccLL	.
16b	.
16cc	.
16dd	.
16ee-	.
16ff	.
=696	=696
16ddLL	.
16cc#	.
16dd	.
16b-	.
16ff	.
16ee-	.
=697	=697
!LO:TX:t=cresc.	!
16ddLL	<
16cc#	.
16dd	.
16b-	.
16cc	.
16dd	.
=698	=698
16ee-LL	.
16dd	.
16ee-	.
16ff	.
16gg	.
16aa	.
=699	=699
16bb-LL	.
16ddd	.
16ccc	.
16bb-	.
16aa	.
16gg	.
=700	=700
16ffLL	.
16gg	.
16ff	.
16ee-	.
16dd	.
16cc	.
=701	=701
16ddLL	.
16cc#	.
16dd	.
16b-	.
16cc	.
16dd	.
=702	=702
16ee-LL	.
16dd	.
16ee-	.
16ff	.
16gg	.
16aa	.
=703	=703
16bb-LL	.
16ddd	.
16ccc	.
16bb-	.
16aa	.
16gg	[
=704	=704
16ffLL	.
16gg	.
16ff	.
16ee-	.
16dd	.
16cc	.
=705	=705
16ddLL	.
16cc#	.
16dd	.
16b-	.
16cc	.
16dd	.
=706	=706
16ee-LL	.
16dd	.
16ee-	.
16ff	.
16gg	.
16aa	.
=707	=707
16bb-LL	.
16ddd	.
16ccc	.
16bb-	.
16aa	.
16gg	.
=708	=708
16ffLL	.
16gg	.
16ff	.
16ee-	.
16dd	.
16cc	.
=709	=709
16b-LL	ff
16dd	.
16cc	.
16b-	.
16a	.
16g	.
=710	=710
16fLL	.
16g	.
16f	.
16e-	.
16d	.
16c	.
=711	=711
8B-L	.
8r	.
8r	.
=712	=712
8fL 8cc 8aa	.
8r	.
8r	.
=713	=713
8dL 8b- 8bb-	.
16r	.
==	==
*-	*-
